X: 51
T:Une jeune fillette
R:Pavane
C:Renaissance
Z:Transcrit et/ou corrig? par Michel BELLON - 2007-06-14
Z:Pour toute observation mailto:galouvielle@free.fr
M:4/4
L:1/4
K:Cmaj
V:1
A | defd | e2+breath+cc | d2e2 | +breath+A3A | defd |
e2+breath+cc | d2e2 | A4 |: a2ag | f3e | fgaa |
g2+breath+ee | ffdd | (e>d)cA | Bdd^c | d4 :|
V:2
A | AAAB | (c>B)AA | (BA)G2 | ^F3A | AAAB |
c>BAA | (BA)G2 | ^F4 |: A2Ac | A3^c | de=cd |
(e>d)cc | d>c BB | (cG)AA | GAAA | A4 :|
V:3
d | fedf | e2ec | B(d2^c) | d3d | fedf | 
e2ec | B(d2^c) | d4 |: c2ce | d3a | ac'aa |
b2aa | aagg | (ge) f(f/2e/2) | dfee | d4 :|
V:4
D | D^CDD | A,2A,A, | (G,F,)E,2 | D,3D | D^CDD | 
A,2A,A, | (G,F,)E,2 | D,4 |: F,2F,C | D3A, | DCF,F, |
E,2A,A, | D,D,G,G, | C2 F,F, | G,D,A,A, | D,4 :|
<end>
<start>
